dist/img/icons/benefits/clock.svg

<svg width="88" height="69" viewBox="0 0 88 69" fill="none" xmlns="http://www.w3.org/2000/svg">
<path fill-rule="evenodd" clip-rule="evenodd" d="M0.0751953 29.7028C0.0751953 28.5675 0.810205 27.163 2.28025 25.4892C4.01228 23.7572 5.11115 22.6219 5.57691 22.0834C7.16339 20.2349 8.74257 18.3865 10.3145 16.538C12.5559 13.6416 13.6767 11.502 13.6767 10.1193C13.6767 9.04227 13.4401 8.26358 12.9671 7.78329C12.4941 7.30298 11.8064 7.06281 10.904 7.06281C9.28837 7.06281 8.10217 8.20535 7.34532 10.4905C6.58846 12.7756 5.46775 13.9181 3.98316 13.9181C2.87699 13.9181 2.02554 13.5652 1.42879 12.8593C0.832042 12.1534 0.533671 11.3274 0.533671 10.3813C0.533671 7.54312 1.56341 5.11249 3.62293 3.08936C5.68244 1.06622 8.26225 0.0546875 11.3624 0.0546875C14.2006 0.0546875 16.5912 0.957062 18.5343 2.76187C20.4774 4.56668 21.4489 6.90997 21.4489 9.79184C21.4489 11.7567 20.8522 13.7726 19.6587 15.8394C18.8582 17.2366 17.49 19.0196 15.5542 21.1883C12.8761 24.2011 11.4279 25.8458 11.2096 26.1223H18.829C19.877 26.1223 20.6957 26.4644 21.2852 27.1484C21.8746 27.8325 22.1694 28.6185 22.1694 29.5063C22.1694 30.4233 21.8783 31.2202 21.2961 31.8969C20.7139 32.5737 19.8916 32.9121 18.829 32.9121H4.20148C3.00798 32.9121 2.0219 32.6138 1.24322 32.017C0.464532 31.4203 0.0751953 30.6489 0.0751953 29.7028ZM25.728 23.2622C25.728 22.6654 25.8954 21.9886 26.2302 21.2318C26.4048 20.7806 26.7032 20.2639 27.1253 19.6817L37.7576 3.04556C38.3543 2.08496 39.0639 1.41907 39.8862 1.04794C40.7086 0.676788 41.7165 0.491211 42.91 0.491211C44.5547 0.491211 45.8609 0.989716 46.8288 1.98672C47.7967 2.98373 48.2807 4.31912 48.2807 5.99292V19.638H49.7871C50.9515 19.638 51.8539 19.8964 52.4943 20.4131C53.1347 20.9298 53.4549 21.7558 53.4549 22.8911C53.4549 23.9972 53.142 24.8123 52.5161 25.3362C51.8903 25.8602 50.9806 26.1222 49.7871 26.1222H48.2807V29.1132C48.2807 31.8204 47.1163 33.174 44.7875 33.174C42.4588 33.174 41.2944 31.8495 41.2944 29.2005V26.1222H29.3522C28.1296 26.1222 27.1908 25.7947 26.5358 25.1397C25.9973 24.6012 25.728 23.9754 25.728 23.2622ZM41.2944 19.6384H34.5919L41.2944 8.13281V19.6384ZM65.4335 39.5562C65.4335 38.6393 65.721 37.8424 66.2959 37.1656C66.8708 36.4888 67.6968 36.1504 68.7738 36.1504H83.4451C84.5803 36.1504 85.49 36.5106 86.1741 37.2311C86.8582 37.9515 87.2002 38.7557 87.2002 39.6436C87.2002 40.1821 87.1129 40.706 86.9382 41.2155C86.88 41.361 86.6253 41.9432 86.1741 42.962L76.0221 65.0999C75.5127 66.2643 75.0469 67.0648 74.6249 67.5014C73.9699 68.2146 73.0821 68.5712 71.9613 68.5712C70.8843 68.5712 70.0183 68.2292 69.3633 67.5451C68.7083 66.861 68.3808 66.1042 68.3808 65.2745C68.3808 64.7942 68.4245 64.4122 68.5118 64.1284C68.5992 63.8445 68.9412 63.0768 69.538 61.825L78.4455 42.9184H68.7738C67.6968 42.9184 66.8708 42.5836 66.2959 41.9141C65.721 41.2446 65.4335 40.4586 65.4335 39.5562ZM42.5686 55.3804C41.8045 56.9742 41.4225 58.1967 41.4225 59.0482C41.4225 61.4716 42.6778 62.6833 45.1885 62.6833C46.04 62.6833 46.8259 62.334 47.5464 61.6353C48.2668 60.9367 49.2275 59.4303 50.4282 57.1161L68.4725 22.3701C69.4113 20.5799 70.0117 19.3682 70.2737 18.7351C70.7758 17.578 71.0269 16.6392 71.0269 15.9187C71.0269 13.5172 69.7716 12.3164 67.2608 12.3164C66.1911 12.3164 65.2086 12.895 64.3135 14.0521C63.8114 14.6852 63.0472 15.9624 62.0211 17.8836L43.9768 52.6295C43.6712 53.2627 43.2018 54.1796 42.5686 55.3804Z" fill="#FFC59E"/>
</svg>

<svg width="88" height="69" fill="none" xmlns="http://www.w3.org/2000/svg"><path fill-rule="evenodd" clip-rule="evenodd" d="M.075 29.703c0-1.136.735-2.54 2.205-4.214 1.732-1.732 2.831-2.867 3.297-3.406 1.586-1.848 3.166-3.696 4.738-5.545 2.24-2.896 3.362-5.036 3.362-6.419 0-1.077-.237-1.855-.71-2.336-.473-.48-1.16-.72-2.063-.72-1.616 0-2.802 1.142-3.559 3.428-.757 2.285-1.877 3.427-3.362 3.427-1.106 0-1.957-.353-2.554-1.059-.597-.706-.895-1.532-.895-2.478 0-2.838 1.03-5.269 3.089-7.292 2.06-2.023 4.64-3.034 7.74-3.034 2.838 0 5.228.902 7.171 2.707 1.943 1.805 2.915 4.148 2.915 7.03 0 1.965-.597 3.98-1.79 6.047-.8 1.398-2.169 3.18-4.105 5.35-2.678 3.012-4.126 4.657-4.344 4.933h7.619c1.048 0 1.867.342 2.456 1.026.59.684.884 1.47.884 2.358 0 .917-.29 1.714-.873 2.39-.582.678-1.404 1.016-2.467 1.016H4.201c-1.193 0-2.18-.298-2.958-.895S.075 30.649.075 29.703zm25.653-6.44c0-.598.167-1.274.502-2.031.175-.451.473-.968.895-1.55L37.758 3.046c.596-.961 1.306-1.627 2.128-1.998C40.71.677 41.716.49 42.91.49c1.645 0 2.95.499 3.919 1.496.968.997 1.452 2.332 1.452 4.006v13.645h1.506c1.165 0 2.067.258 2.707.775.64.517.96 1.343.96 2.478 0 1.106-.312 1.921-.938 2.445-.626.524-1.535.786-2.729.786h-1.506v2.991c0 2.707-1.165 4.061-3.493 4.061-2.33 0-3.494-1.325-3.494-3.973v-3.079H29.352c-1.222 0-2.161-.327-2.816-.982-.539-.539-.808-1.165-.808-1.878zm15.566-3.625h-6.702l6.702-11.505v11.505zm24.14 19.918c0-.917.287-1.714.862-2.39.575-.677 1.4-1.016 2.478-1.016h14.671c1.135 0 2.045.36 2.73 1.081.683.72 1.025 1.525 1.025 2.413a4.81 4.81 0 01-.262 1.572c-.058.145-.313.727-.764 1.746L76.022 65.1c-.51 1.164-.975 1.965-1.397 2.401-.655.714-1.543 1.07-2.664 1.07-1.077 0-1.943-.342-2.598-1.026-.655-.684-.982-1.44-.982-2.27 0-.48.043-.863.13-1.147.088-.284.43-1.051 1.027-2.303l8.907-18.907h-9.671c-1.077 0-1.903-.334-2.478-1.004a3.506 3.506 0 01-.863-2.358zM42.569 55.38c-.765 1.594-1.147 2.817-1.147 3.668 0 2.424 1.256 3.635 3.767 3.635.851 0 1.637-.349 2.357-1.048.72-.698 1.681-2.205 2.882-4.519L68.472 22.37c.94-1.79 1.54-3.002 1.802-3.635.502-1.157.753-2.096.753-2.816 0-2.402-1.255-3.603-3.766-3.603-1.07 0-2.052.579-2.947 1.736-.503.633-1.267 1.91-2.293 3.832L43.977 52.629c-.306.634-.775 1.55-1.408 2.751z" fill="#FFC59E"/></svg>
